Yosa-Max/apps/scalable/libreoffice-impress.svg

<?xml version="1.0" encoding="UTF-8"?>
<svg id="svg48" version="1.1" viewBox="0 0 48 48" xmlns="http://www.w3.org/2000/svg" xmlns:xlink="http://www.w3.org/1999/xlink">
 <defs id="defs52">
  <linearGradient id="linearGradient978" x1="68.94915" x2="68.94915" y1="46.372883" y2="3.4576273" gradientTransform="translate(-45.762712,-1.0169492)" gradientUnits="userSpaceOnUse">
   <stop id="stop972" style="stop-color:#ff771d" offset="0"/>
   <stop id="stop974" style="stop-color:#ff944d" offset="1"/>
  </linearGradient>
 </defs>
 <path id="rect883" d="m7 2v44h34v-29.171875l-13.414062-13.414063-1.414063-1.4140624z" style="fill:url(#linearGradient978);paint-order:stroke fill markers"/>
 <path id="rect893" d="m29 2 12 12v-12z" style="fill:#ff6f10;paint-order:stroke fill markers"/>
 <path id="path30" d="m24.984549 16.031292c3.874206 0 7.015451 3.134901 7.015451 7.009258h-7.015451c0.0015 0 0.0015-7.009258 0-7.009258zm-1.971999 1.905824v7.015963h7.015449c0 3.878383-3.139797 7.015629-7.015449 7.015629-3.875669 0-7.01255-3.137246-7.01255-7.015629 0-3.875699 3.138337-7.015963 7.01255-7.015963z" style="fill:#ffffff;stroke-width:1.6422782"/>
</svg>

<?xml version="1.0" encoding="UTF-8" standalone="no"?>
<svg
   xmlns:dc="http://purl.org/dc/elements/1.1/"
   xmlns:cc="http://creativecommons.org/ns#"
   xmlns:rdf="http://www.w3.org/1999/02/22-rdf-syntax-ns#"
   xmlns:svg="http://www.w3.org/2000/svg"
   xmlns="http://www.w3.org/2000/svg"
   xmlns:xlink="http://www.w3.org/1999/xlink"
   xmlns:sodipodi="http://sodipodi.sourceforge.net/DTD/sodipodi-0.dtd"
   xmlns:inkscape="http://www.inkscape.org/namespaces/inkscape"
   height="48"
   width="48"
   version="1.1"
   id="svg48"
   sodipodi:docname="libreoffice-impress.svg"
   inkscape:version="0.92.2 2405546, 2018-03-11">
  <metadata
     id="metadata54">
    <rdf:RDF>
      <cc:Work
         rdf:about="">
        <dc:format>image/svg+xml</dc:format>
        <dc:type
           rdf:resource="http://purl.org/dc/dcmitype/StillImage" />
      </cc:Work>
    </rdf:RDF>
  </metadata>
  <defs
     id="defs52">
    <linearGradient
       id="linearGradient863">
      <stop
         style="stop-color:#a5a5a5;stop-opacity:1"
         offset="0"
         id="stop859" />
      <stop
         style="stop-color:#dbdbdb;stop-opacity:1"
         offset="1"
         id="stop861" />
    </linearGradient>
    <linearGradient
       id="linearGradient822">
      <stop
         style="stop-color:#0652ff;stop-opacity:1"
         offset="0"
         id="stop818" />
      <stop
         style="stop-color:#1b99ff;stop-opacity:1"
         offset="1"
         id="stop820" />
    </linearGradient>
    <linearGradient
       x1="411.66486"
       id="c-3"
       y1="532.612"
       y2="514.79797"
       x2="406.56763"
       gradientUnits="userSpaceOnUse"
       gradientTransform="matrix(2.4445151,0,0,2.4445151,-974.7584,-1256.4318)">
      <stop
         style="stop-color:#2e89fc;stop-opacity:1"
         stop-color="#7cbaf8"
         id="stop12" />
      <stop
         style="stop-color:#42f2ff;stop-opacity:1"
         offset="1"
         stop-color="#f4fcff"
         id="stop14" />
    </linearGradient>
    <linearGradient
       xlink:href="#linearGradient822"
       id="linearGradient824"
       x1="26.10714"
       y1="45.762711"
       x2="26.10714"
       y2="2.4374466"
       gradientUnits="userSpaceOnUse"
       gradientTransform="matrix(0.3097139,0,0,0.3097139,393.13824,522.33096)" />
    <linearGradient
       xlink:href="#linearGradient863"
       id="linearGradient865"
       x1="400.55444"
       y1="517.83185"
       x2="400.55444"
       y2="545.22168"
       gradientUnits="userSpaceOnUse" />
    <linearGradient
       gradientTransform="translate(-45.762712,-1.0169492)"
       inkscape:collect="always"
       xlink:href="#linearGradient976"
       id="linearGradient978"
       x1="68.94915"
       y1="46.372883"
       x2="68.94915"
       y2="3.4576273"
       gradientUnits="userSpaceOnUse" />
    <linearGradient
       inkscape:collect="always"
       id="linearGradient976">
      <stop
         style="stop-color:#ff771d;stop-opacity:1"
         offset="0"
         id="stop972" />
      <stop
         style="stop-color:#ff944d;stop-opacity:1"
         offset="1"
         id="stop974" />
    </linearGradient>
  </defs>
  <sodipodi:namedview
     pagecolor="#ffffff"
     bordercolor="#666666"
     borderopacity="1"
     objecttolerance="10"
     gridtolerance="10"
     guidetolerance="10"
     inkscape:pageopacity="0"
     inkscape:pageshadow="2"
     inkscape:window-width="1366"
     inkscape:window-height="699"
     id="namedview50"
     showgrid="false"
     inkscape:zoom="10.145833"
     inkscape:cx="24"
     inkscape:cy="24"
     inkscape:window-x="0"
     inkscape:window-y="0"
     inkscape:window-maximized="1"
     inkscape:current-layer="svg48" />
  <linearGradient
     id="a">
    <stop
       offset="0"
       stop-color="#f6fbff"
       id="stop2" />
    <stop
       offset="1"
       stop-color="#eaeff2"
       id="stop4" />
  </linearGradient>
  <linearGradient
     id="b"
     gradientTransform="matrix(1.6856954,0,0,1.635038,-13.432751,-1651.8387)"
     gradientUnits="userSpaceOnUse"
     x1="17"
     x2="17"
     y1="1036.3622"
     y2="1012.3622">
    <stop
       offset="0"
       stop-color="#c23b16"
       id="stop7" />
    <stop
       offset="1"
       stop-color="#ff6a44"
       id="stop9" />
  </linearGradient>
  <linearGradient
     id="c"
     gradientTransform="matrix(1.0343908,0,0,1.635038,8.3597408,-1651.8387)"
     gradientUnits="userSpaceOnUse"
     x1="33.461716"
     x2="34.116894"
     xlink:href="#a"
     y1="1013.622"
     y2="1037.2084" />
  <linearGradient
     id="d"
     gradientUnits="userSpaceOnUse"
     x1="20.92002489618"
     x2="20.860920416766"
     xlink:href="#a"
     y1="1031.624860989"
     y2="1016.873613291126"
     gradientTransform="matrix(1.6422783,0,0,1.6422783,-12.395956,-1658.3179)" />
  <linearGradient
     id="e"
     gradientUnits="userSpaceOnUse"
     x1="28.115517452278"
     x2="28.19570004926"
     xlink:href="#a"
     y1="1030.647052295592"
     y2="1018.913393688854"
     gradientTransform="matrix(1.6422783,0,0,1.6422783,-12.395956,-1658.3179)" />
  <linearGradient
     id="f"
     gradientTransform="matrix(0.47839534,0,0,0.30468853,18.102817,710.28769)"
     gradientUnits="userSpaceOnUse"
     x1="20.734341"
     x2="20.836763"
     xlink:href="#a"
     y1="1032.5204"
     y2="1017.5323" />
  <linearGradient
     id="g"
     gradientUnits="userSpaceOnUse"
     x1="13.652462724108"
     x2="13.747651973347"
     xlink:href="#a"
     y1="1031.994288709936"
     y2="1018.064605765732"
     gradientTransform="matrix(1.6422783,0,0,1.6422783,-12.395956,-1658.3179)" />
  <linearGradient
     id="h"
     gradientTransform="matrix(0.3370342,0,0,1.7626934,13.842496,-1783.0964)"
     gradientUnits="userSpaceOnUse"
     x1="20.734341"
     x2="20.836763"
     xlink:href="#a"
     y1="1032.5204"
     y2="1017.5323" />
  <text
     xml:space="preserve"
     style="font-style:normal;font-weight:normal;font-size:40px;line-height:1.25;font-family:sans-serif;letter-spacing:0px;word-spacing:0px;fill:#000000;fill-opacity:1;stroke:none"
     x="-31.496216"
     y="25.851976"
     id="text879"><tspan
       sodipodi:role="line"
       id="tspan877"
       x="-31.496216"
       y="61.242599" /></text>
  <path
     inkscape:connector-curvature="0"
     style="opacity:1;fill:url(#linearGradient978);fill-opacity:1;stroke:none;stroke-width:3;stroke-linecap:round;stroke-linejoin:miter;stroke-miterlimit:4;stroke-dasharray:none;stroke-opacity:1;paint-order:stroke fill markers"
     d="M 7,2 V 46 H 41 V 16.828125 L 27.585938,3.4140624 26.171875,2 Z"
     id="rect883" />
  <path
     inkscape:connector-curvature="0"
     style="opacity:1;fill:#ff6f10;fill-opacity:1;stroke:none;stroke-width:3;stroke-linecap:round;stroke-linejoin:miter;stroke-miterlimit:4;stroke-dasharray:none;stroke-opacity:1;paint-order:stroke fill markers"
     d="M 29,2 41,14 V 2 Z"
     id="rect893" />
  <path
     d="M 24.984549,16.031292 C 28.858755,16.031292 32,19.166193 32,23.04055 h -7.015451 c 0.0015,0 0.0015,-7.009258 0,-7.009258 z m -1.971999,1.905824 v 7.015963 h 7.015449 c 0,3.878383 -3.139797,7.015629 -7.015449,7.015629 -3.875669,0 -7.01255,-3.137246 -7.01255,-7.015629 0,-3.875699 3.138337,-7.015963 7.01255,-7.015963 z"
     id="path30"
     style="fill:#ffffff;stroke-width:1.64227819"
     inkscape:connector-curvature="0" />
</svg>
